img/playvid.svg

<svg width="96" height="96" viewBox="0 0 96 96" fill="none" xmlns="http://www.w3.org/2000/svg">
<path d="M48 4C72.256 4 92 23.74 92 48C92 72.26 72.256 92 48 92C23.744 92 4 72.26 4 48C4 23.74 23.744 4 48 4ZM48 0C21.492 0 0 21.492 0 48C0 74.508 21.492 96 48 96C74.508 96 96 74.508 96 48C96 21.492 74.508 0 48 0Z" fill="white"/>
<path d="M34 70.784C33.656 70.784 33.308 70.6961 33 70.5161C32.384 70.1601 32 69.5001 32 68.784V27.2081C32 26.4921 32.384 25.8321 33 25.4761C33.616 25.1161 34.384 25.1161 35 25.4761L71 46.2601C71.616 46.6161 72 47.2761 72 47.9921C72 48.7081 71.616 49.3681 71 49.7241L35 70.5081C34.692 70.6961 34.344 70.784 34 70.784ZM36 30.6801V65.3201L66 48.0001L36 30.6801V30.6801Z" fill="white"/>
</svg>

<svg xmlns="http://www.w3.org/2000/svg" xmlns:xlink="http://www.w3.org/1999/xlink" version="1.1" viewBox="0 0 96 96" x="0px" y="0px" style="max-width:100%" height="100%"><path d="M48 4c24.256 0 44 19.74 44 44s-19.744 44-44 44-44-19.74-44-44 19.744-44 44-44zM48 0c-26.508 0-48 21.492-48 48s21.492 48 48 48 48-21.492 48-48-21.492-48-48-48v0z" fill="currentColor" style=""></path><path d="M34 70.784c-0.344 0-0.692-0.088-1-0.268-0.616-0.356-1-1.016-1-1.732v-41.576c0-0.716 0.384-1.376 1-1.732 0.616-0.36 1.384-0.36 2 0l36 20.784c0.616 0.356 1 1.016 1 1.732s-0.384 1.376-1 1.732l-36 20.784c-0.308 0.188-0.656 0.276-1 0.276zM36 30.68v34.64l30-17.32-30-17.32z" fill="currentColor" style=""></path></svg>
